X: 1
T: Gan Ainm
M: 4/4
L: 1/8
R: reel
K: Dmaj
|:F2AB AFED|F2AB AFED|(3A,A,A, EA, FA,EA,|AFEF E2DE|
  F2AB AFED|F2AB AFED|(3A,A,A, EA, FA,GA,|1AFEF D2DE:|2AFEF D4||
|:Adfd Adfd|g2gf edcB|(3AAA eA fAeA|e2ef edcB|
Adfd Adfd|g2gf edcB|ABcA BcdB|1cdec d2dB:|2cdec d4||
|:dBAF DEFA|dBAF DEFA|=c2A=c B2GB|AGFE DEFA|
dBAF DEFA|dBAF DEFA|=cBA=c BAGB|1AFEF D2FE:|2AFEF D4||
